assets/you_win.svg

<?xml version="1.0" encoding="utf-8" ?>
<svg xmlns="http://www.w3.org/2000/svg" xmlns:xlink="http://www.w3.org/1999/xlink" width="230.2534" height="35.9414" viewBox="0 0 230.2534 35.9414">
	<defs>
		<linearGradient id="linearGradient0342383376" gradientTransform="matrix(235.828 0 0 71 0 0)" gradientUnits="userSpaceOnUse" x1="0" y1="0.5" x2="1" y2="0.5">
			<stop offset="0" stop-color="rgb(255, 107, 107)"/>
			<stop offset="0.5" stop-color="rgb(78, 205, 196)"/>
			<stop offset="1" stop-color="rgb(42, 211, 0)"/>
		</linearGradient>
	</defs>
	<path transform="matrix(1 0 0 1 -1.3252 -17.6094)" d="M1.32497 18.0898L11.8953 18.0898L18.7039 32.2695L18.9851 32.2695L25.8054 18.0898L36.364 18.0898L23.5554 42.0195L23.5554 53L14.1453 53L14.1453 42.0195L1.32497 18.0898Z" fill-rule="nonzero" fill="url(#linearGradient0342383376)"/>
	<defs>
		<linearGradient id="linearGradient2839457260" gradientTransform="matrix(235.828 0 0 71 0 0)" gradientUnits="userSpaceOnUse" x1="0" y1="0.5" x2="1" y2="0.5">
			<stop offset="0" stop-color="rgb(255, 107, 107)"/>
			<stop offset="0.5" stop-color="rgb(78, 205, 196)"/>
			<stop offset="1" stop-color="rgb(42, 211, 0)"/>
		</linearGradient>
	</defs>
	<path transform="matrix(1 0 0 1 -1.3252 -17.6094)" d="M70.8023 35.5508Q70.8023 41.375 68.5289 45.3711Q66.2672 49.3672 62.4117 51.4297Q58.5562 53.4805 53.8219 53.4805Q49.0523 53.4805 45.2086 51.4062Q41.3648 49.332 39.1031 45.3359Q36.8414 41.3398 36.8414 35.5508Q36.8414 29.7148 39.1031 25.7188Q41.3648 21.7227 45.2086 19.6719Q49.0523 17.6094 53.8219 17.6094Q58.5562 17.6094 62.4117 19.6719Q66.2672 21.7227 68.5289 25.7188Q70.8023 29.7148 70.8023 35.5508ZM61.0523 35.5508Q61.0523 32.4102 60.2203 30.2539Q59.4 28.0977 57.7828 26.9844Q56.1773 25.8594 53.8219 25.8594Q51.4664 25.8594 49.8492 26.9844Q48.2437 28.0977 47.4117 30.2539Q46.5914 32.4102 46.5914 35.5508Q46.5914 38.6797 47.4117 40.8359Q48.2437 42.9922 49.8492 44.1172Q51.4664 45.2305 53.8219 45.2305Q56.1773 45.2305 57.7828 44.1172Q59.4 42.9922 60.2203 40.8359Q61.0523 38.6797 61.0523 35.5508Z" fill-rule="nonzero" fill="url(#linearGradient2839457260)"/>
	<defs>
		<linearGradient id="linearGradient2189671177" gradientTransform="matrix(235.828 0 0 71 0 0)" gradientUnits="userSpaceOnUse" x1="0" y1="0.5" x2="1" y2="0.5">
			<stop offset="0" stop-color="rgb(255, 107, 107)"/>
			<stop offset="0.5" stop-color="rgb(78, 205, 196)"/>
			<stop offset="1" stop-color="rgb(42, 211, 0)"/>
		</linearGradient>
	</defs>
	<path transform="matrix(1 0 0 1 -1.3252 -17.6094)" d="M95.8241 18.0898L105.305 18.0898L105.305 40.4492Q105.305 44.4453 103.394 47.3516Q101.496 50.2578 98.0975 51.8398Q94.7108 53.4102 90.2343 53.4102Q85.7108 53.4102 82.3124 51.8398Q78.9257 50.2578 77.0389 47.3516Q75.1639 44.4453 75.1639 40.4492L75.1639 18.0898L84.6444 18.0898L84.6444 39.6406Q84.6444 41.2578 85.3593 42.5352Q86.0741 43.8008 87.3397 44.5156Q88.6171 45.2305 90.2343 45.2305Q91.8632 45.2305 93.1288 44.5156Q94.3944 43.8008 95.1093 42.5352Q95.8241 41.2578 95.8241 39.6406L95.8241 18.0898Z" fill-rule="nonzero" fill="url(#linearGradient2189671177)"/>
	<defs>
		<linearGradient id="linearGradient8102385735" gradientTransform="matrix(235.828 0 0 71 0 0)" gradientUnits="userSpaceOnUse" x1="0" y1="0.5" x2="1" y2="0.5">
			<stop offset="0" stop-color="rgb(255, 107, 107)"/>
			<stop offset="0.5" stop-color="rgb(78, 205, 196)"/>
			<stop offset="1" stop-color="rgb(42, 211, 0)"/>
		</linearGradient>
	</defs>
	<path transform="matrix(1 0 0 1 -1.3252 -17.6094)" d="M128.205 53L117.916 18.0898L128.487 18.0898L133.256 39.5703L133.526 39.5703L139.186 18.0898L147.506 18.0898L153.166 39.6406L153.436 39.6406L158.205 18.0898L168.776 18.0898L158.487 53L149.416 53L143.487 33.5L143.205 33.5L137.276 53L128.205 53Z" fill-rule="nonzero" fill="url(#linearGradient8102385735)"/>
	<defs>
		<linearGradient id="linearGradient8356975755" gradientTransform="matrix(235.828 0 0 71 0 0)" gradientUnits="userSpaceOnUse" x1="0" y1="0.5" x2="1" y2="0.5">
			<stop offset="0" stop-color="rgb(255, 107, 107)"/>
			<stop offset="0.5" stop-color="rgb(78, 205, 196)"/>
			<stop offset="1" stop-color="rgb(42, 211, 0)"/>
		</linearGradient>
	</defs>
	<path transform="matrix(1 0 0 1 -1.3252 -17.6094)" d="M181.326 18.0898L181.326 53L171.846 53L171.846 18.0898L181.326 18.0898Z" fill-rule="nonzero" fill="url(#linearGradient8356975755)"/>
	<defs>
		<linearGradient id="linearGradient1084826824" gradientTransform="matrix(235.828 0 0 71 0 0)" gradientUnits="userSpaceOnUse" x1="0" y1="0.5" x2="1" y2="0.5">
			<stop offset="0" stop-color="rgb(255, 107, 107)"/>
			<stop offset="0.5" stop-color="rgb(78, 205, 196)"/>
			<stop offset="1" stop-color="rgb(42, 211, 0)"/>
		</linearGradient>
	</defs>
	<path transform="matrix(1 0 0 1 -1.3252 -17.6094)" d="M216.023 18.0898L216.023 53L208.124 53L195.503 34.6602L195.304 34.6602L195.304 53L185.823 53L185.823 18.0898L193.874 18.0898L206.273 36.3594L206.554 36.3594L206.554 18.0898L216.023 18.0898Z" fill-rule="nonzero" fill="url(#linearGradient1084826824)"/>
	<defs>
		<linearGradient id="linearGradient5922032699" gradientTransform="matrix(235.828 0 0 71 0 0)" gradientUnits="userSpaceOnUse" x1="0" y1="0.5" x2="1" y2="0.5">
			<stop offset="0" stop-color="rgb(255, 107, 107)"/>
			<stop offset="0.5" stop-color="rgb(78, 205, 196)"/>
			<stop offset="1" stop-color="rgb(42, 211, 0)"/>
		</linearGradient>
	</defs>
	<path transform="matrix(1 0 0 1 -1.3252 -17.6094)" d="M231.579 18.0898L230.688 42.0898L222.919 42.0898L222.028 18.0898L231.579 18.0898ZM226.798 53.5508Q224.829 53.5508 223.423 52.1562Q222.016 50.7617 222.028 48.7695Q222.016 46.8242 223.423 45.4531Q224.829 44.0703 226.798 44.0703Q228.673 44.0703 230.114 45.4531Q231.555 46.8242 231.579 48.7695Q231.555 50.1055 230.876 51.1836Q230.208 52.2617 229.13 52.9062Q228.063 53.5508 226.798 53.5508Z" fill-rule="nonzero" fill="url(#linearGradient5922032699)"/>
</svg>

<svg xmlns="http://www.w3.org/2000/svg" width="230.25" height="35.94"><defs><linearGradient id="a" x1="0" x2="1" y1=".5" y2=".5" gradientTransform="scale(235.828 71)" gradientUnits="userSpaceOnUse"><stop offset="0" stop-color="#FF6B6B"/><stop offset=".5" stop-color="#4ECDC4"/><stop offset="1" stop-color="#2AD300"/></linearGradient></defs><path fill="url(#a)" d="M1.32 18.09H11.9l6.8 14.18H19l6.82-14.18h10.55l-12.8 23.93V53h-9.41V42.02L1.32 18.09Z" transform="translate(-1.33 -17.6)"/><defs><linearGradient id="b" x1="0" x2="1" y1=".5" y2=".5" gradientTransform="scale(235.828 71)" gradientUnits="userSpaceOnUse"><stop offset="0" stop-color="#FF6B6B"/><stop offset=".5" stop-color="#4ECDC4"/><stop offset="1" stop-color="#2AD300"/></linearGradient></defs><path fill="url(#b)" d="M70.8 35.55q0 5.83-2.27 9.82-2.26 4-6.12 6.06-3.85 2.05-8.59 2.05-4.77 0-8.61-2.07-3.85-2.08-6.1-6.07-2.27-4-2.27-9.79 0-5.84 2.26-9.83 2.26-4 6.1-6.05 3.85-2.06 8.62-2.06 4.74 0 8.6 2.06 3.85 2.05 6.1 6.05 2.28 4 2.28 9.83Zm-9.75 0q0-3.14-.83-5.3-.82-2.15-2.44-3.27-1.6-1.12-3.96-1.12-2.35 0-3.97 1.12-1.6 1.12-2.44 3.27-.82 2.16-.82 5.3 0 3.13.82 5.29.83 2.15 2.44 3.28 1.62 1.11 3.97 1.11 2.36 0 3.96-1.11 1.62-1.13 2.44-3.28.83-2.16.83-5.29Z" transform="translate(-1.33 -17.6)"/><defs><linearGradient id="c" x1="0" x2="1" y1=".5" y2=".5" gradientTransform="scale(235.828 71)" gradientUnits="userSpaceOnUse"><stop offset="0" stop-color="#FF6B6B"/><stop offset=".5" stop-color="#4ECDC4"/><stop offset="1" stop-color="#2AD300"/></linearGradient></defs><path fill="url(#c)" d="M95.82 18.09h9.49v22.36q0 4-1.92 6.9-1.9 2.9-5.3 4.49-3.38 1.57-7.86 1.57-4.52 0-7.92-1.57-3.38-1.58-5.27-4.49-1.88-2.9-1.88-6.9V18.09h9.48v21.55q0 1.62.72 2.9.71 1.26 1.98 1.98 1.28.71 2.9.71 1.62 0 2.89-.71 1.26-.72 1.98-1.98.71-1.28.71-2.9V18.1Z" transform="translate(-1.33 -17.6)"/><defs><linearGradient id="d" x1="0" x2="1" y1=".5" y2=".5" gradientTransform="scale(235.828 71)" gradientUnits="userSpaceOnUse"><stop offset="0" stop-color="#FF6B6B"/><stop offset=".5" stop-color="#4ECDC4"/><stop offset="1" stop-color="#2AD300"/></linearGradient></defs><path fill="url(#d)" d="m128.2 53-10.28-34.91h10.57l4.77 21.48h.27l5.66-21.48h8.32l5.66 21.55h.27l4.77-21.55h10.57L158.48 53h-9.06l-5.93-19.5h-.28L137.28 53h-9.07Z" transform="translate(-1.33 -17.6)"/><defs><linearGradient id="e" x1="0" x2="1" y1=".5" y2=".5" gradientTransform="scale(235.828 71)" gradientUnits="userSpaceOnUse"><stop offset="0" stop-color="#FF6B6B"/><stop offset=".5" stop-color="#4ECDC4"/><stop offset="1" stop-color="#2AD300"/></linearGradient></defs><path fill="url(#e)" d="M181.33 18.09V53h-9.48V18.09h9.48Z" transform="translate(-1.33 -17.6)"/><defs><linearGradient id="f" x1="0" x2="1" y1=".5" y2=".5" gradientTransform="scale(235.828 71)" gradientUnits="userSpaceOnUse"><stop offset="0" stop-color="#FF6B6B"/><stop offset=".5" stop-color="#4ECDC4"/><stop offset="1" stop-color="#2AD300"/></linearGradient></defs><path fill="url(#f)" d="M216.02 18.09V53h-7.9L195.5 34.66h-.2V53h-9.48V18.09h8.05l12.4 18.27h.28V18.09h9.47Z" transform="translate(-1.33 -17.6)"/><defs><linearGradient id="g" x1="0" x2="1" y1=".5" y2=".5" gradientTransform="scale(235.828 71)" gradientUnits="userSpaceOnUse"><stop offset="0" stop-color="#FF6B6B"/><stop offset=".5" stop-color="#4ECDC4"/><stop offset="1" stop-color="#2AD300"/></linearGradient></defs><path fill="url(#g)" d="m231.58 18.09-.9 24h-7.76l-.9-24h9.56Zm-4.78 35.46q-1.97 0-3.38-1.4-1.4-1.39-1.4-3.38 0-1.95 1.4-3.32 1.4-1.38 3.38-1.38 1.87 0 3.31 1.38 1.44 1.37 1.47 3.32-.03 1.34-.7 2.41-.67 1.08-1.75 1.73-1.07.64-2.33.64Z" transform="translate(-1.33 -17.6)"/></svg>
